ZUCCAL
CUT["Treue"
    BEI UNS IN TYROL]
REG[Europa, Mitteleuropa, Tirol]
KEY[Z1244  08  G 3/4]
MEL[12  3_3_3_  4_4346  53+1_0_  0__
    12  3_3_3_  4_4346  5__0_  0__
    12  3_3_3_  544346  53+1_0_  0__
    12  3_3_3_  54321-7  1__0_  0__
    5_  5_.55_  5_5_4_  3_2_0_  0__
    5_  5_.55_  5_5654  3__0_  0__
    12  3_3_3_  544346  53+1_0_  0__
    12  3_3_3_  54321-7  1__ //] >>
FCT[Liebes - Lied]
